X:66
T:I'll Break Your Head for You
T:Buailidh mi thu anns a' cheann
R:Reel
S:Simon Fraser Collection
N:No.20
O:Scottish
M:C
L:1/8
K:G Minor
e|d3e d2 cB|B2 BB c2cc|d3e d2 cB|AG^FA G/G/G G2:|
B<B fg fddc|B<B fB d<d d2|B<B fg fddb|gffB G/G/G G2|B/B/B fB d/d/d dc|
B/B/B fB d/d/d d2|B/B/B fB d/d/d db|gBfB G/G/G G||

